X:1
T:Le Prince Igor Acte II danse polovtsienne
T:Le Prince Igor Acte II danse polovtsienne
T:A.Borodine
C:A.Borodine
%%score 1 2
L:1/8
Q:1/4=80
M:4/4
K:G
V:1 treble nm="Soprano"
V:2 treble nm="Alto"
V:1
 AA e2- ed/e/ cB/A/ | B/c/d- d2 z e BA/G/ | EE A2- AB AG/F/ | G/F/E- E2 z F GB | %4
w: Va sur l'ai- * le \- des doux \-|Zé \- phirs, * A- é- ri \-|en- ne va, * chan- son et \-|vo \- le * Vers le pa-|
 AA e2- ed/e/ cB/A/ | B/c/d- d2 z e BA/G/ | EE A2- AB AG/F/ | G/F/E- E2- E z z2 | z2 E2 E2 F2 | %9
w: ys na- tal * où \- vont mes \-|sou \- pirs * Où ma jeu- ne|â- me suit * la bri- se ~|fo \- lle * *|L'i- vre \-|
 G8 | c4 c4 | B4 G4 | E4 F4 | G8 | E8 | (E4 ^D4) | AA e2- ed/e/ cB/A/ | B/c/d- d2 z e BA/G/ | %18
w: sse|et l'é-|cho ~|et les|monts|la|mer *|Le so- leil * du ~ sud i \-|non \- de * Les monts du ~|
 EE A2- AB AG/F/ | G/F/E- E2 z F GB | AA e2- ed/e/ cB/A/ | B/c/d- d2 z d/e/ dc/B/ | %22
w: beau pa- ys, * per- le du ~|mon \- de * Dans ses val-|lons la ro- * se ~ naît ver \-|meil \- le, * Dans \- ses fo \-|
 EE A2- AA/B/ AG/F/ | G/F/E- E2- E z z2 | z2 E2 E2 F2 | G4 z4 | AA e2- ed/e/ cB/A/ | B/A/G- G6 | %28
w: rêts, doux chant * par \- tout s'é \-|veil \- le * *|Des ros- si-|gnols|les chan- sons * pas \- sent dans ~|l'é \- ther *|
 z8 | z8 | z8 |] %31
w: |||
V:2
 C4 E2 F2 | G4 B,4 | C8 | B,4 G,4 | C3 C E2 F2 | G4 B,4 | C8 | B,4 G,4 | A,A, (C2 C)D CB,/A,/ | %9
w: Va sur ~|l'ai- le|A-|é- rienne|Le pa- ys na-|tal ~|ma|jeune âme|L'air est plein * ~ ~ d'i \-|
 B,/C/(D D2-) D_E DB, | _EE G2- GA G=F/E/ | D/C/B,- B,2- B,C DC/B,/ | A,A, C2- CD CB,/A,/ | %13
w: vres \- \- * * \- se \-|Et l'é- cho * ~ ca \- \-|res \- \- * * \- se; ~ ~|Et les monts * ~ som \- \-|
 G,/A,/B,- B,2- B,C B,G, | A,A, E2- ED/E/ CB,/A,/ | B,8 | C4 E2 F2 | G4 B,4 | C8 | B,4 G,4 | %20
w: meil \- \- * * \- lent ~|au mur- mu- * re ~ de la ~|mer;|Le so \-|leil ray-|on|ne, La|
 G4 F4- | F4 =F3 D | C8 | B,4- B,D/E/ DC/B,/ | A,A, C2- CD CB,/A,/ | B,/A,/G,- G,2- G,4- | G,8- | %27
w: ro- se|* ~ fleu-|rit|Le * ~ doux rai \- sin|mû- rit ~ * là ~ ~ bas|~ ~ Vers * *||
 G,4 z4 | A,A, E2- ED/E/ CB,/A,/ | B,/A,/G,- G,6- | G,8 |] %31
w: |le bord bleu * ~ de la ~ mer|~ ~ * *||

